flaticon/transport/safety-seat.svg

<svg xmlns="http://www.w3.org/2000/svg" width="32" height="32" viewBox="0 0 24 24">
    <path d="M 6.140625 15.480469 C 6.339844 16.480469 7.21875 17.199219 8.21875 17.199219 C 8.378906 17.199219 8.539062 17.160156 8.660156 17.160156 C 9.820312 16.921875 10.941406 16.800781 11.980469 16.800781 C 13.019531 16.800781 14.140625 16.921875 15.261719 17.160156 C 16.421875 17.398438 17.539062 16.640625 17.78125 15.480469 C 17.820312 15.359375 17.820312 15.199219 17.859375 15.078125 C 17.898438 14.761719 17.898438 14.398438 17.820312 14.078125 L 16.660156 9.078125 C 16.460938 8.28125 15.859375 7.679688 15.101562 7.480469 C 14.578125 7.320312 13.621094 7.160156 12.339844 7.160156 C 12.179688 7.160156 12.058594 7.160156 12.058594 7.160156 L 11.859375 7.160156 C 11.859375 7.160156 11.738281 7.160156 11.578125 7.160156 C 10.300781 7.160156 9.378906 7.320312 8.820312 7.480469 C 8.019531 7.679688 7.460938 8.320312 7.261719 9.078125 L 6.101562 14.078125 C 6.019531 14.441406 6.019531 14.761719 6.058594 15.078125 C 6.101562 15.238281 6.101562 15.359375 6.140625 15.480469 Z M 6.898438 14.28125 L 8.058594 9.28125 C 8.179688 8.800781 8.539062 8.398438 9.019531 8.28125 C 9.5 8.160156 10.378906 8 11.578125 8 C 11.738281 8 11.820312 8 11.859375 8 L 12.140625 8 C 12.140625 8 12.261719 8 12.378906 8 C 13.578125 8 14.421875 8.160156 14.980469 8.28125 C 15.460938 8.398438 15.820312 8.800781 15.941406 9.28125 L 17.101562 14.28125 C 17.179688 14.519531 17.179688 14.71875 17.140625 14.960938 C 17.101562 15.078125 17.101562 15.199219 17.058594 15.320312 C 16.910156 16 16.257812 16.464844 15.578125 16.378906 L 15.578125 15.199219 C 15.578125 14.960938 15.421875 14.800781 15.179688 14.800781 C 14.941406 14.800781 14.78125 14.960938 14.78125 15.199219 L 14.78125 16.234375 C 14.511719 16.191406 14.246094 16.15625 13.980469 16.121094 L 13.980469 14.800781 C 13.980469 14.558594 13.820312 14.398438 13.578125 14.398438 C 13.339844 14.398438 13.179688 14.558594 13.179688 14.800781 L 13.179688 16.046875 C 12.910156 16.023438 12.644531 16.011719 12.378906 16.003906 L 12.378906 14.398438 C 12.378906 14.160156 12.21875 14 11.980469 14 C 11.738281 14 11.578125 14.160156 11.578125 14.398438 L 11.578125 16.003906 C 11.316406 16.011719 11.046875 16.023438 10.78125 16.046875 L 10.78125 14.800781 C 10.78125 14.558594 10.621094 14.398438 10.378906 14.398438 C 10.140625 14.398438 9.980469 14.558594 9.980469 14.800781 L 9.980469 16.125 C 9.714844 16.15625 9.449219 16.195312 9.179688 16.238281 L 9.179688 15.199219 C 9.179688 14.960938 9.019531 14.800781 8.78125 14.800781 C 8.539062 14.800781 8.378906 14.960938 8.378906 15.199219 L 8.378906 16.382812 C 7.6875 16.449219 7.089844 15.988281 6.941406 15.320312 C 6.898438 15.199219 6.859375 15.078125 6.859375 14.960938 C 6.820312 14.761719 6.859375 14.519531 6.898438 14.28125 Z M 6.898438 14.28125"/>
    <path d="M 22.019531 19.960938 C 22.019531 19.28125 21.78125 18.679688 21.339844 18.28125 C 20.84375 17.8125 20.15625 17.644531 19.695312 17.585938 C 19.9375 16.980469 20.125 16.261719 20.261719 15.441406 C 20.339844 14.800781 20.339844 14.160156 20.179688 13.519531 L 18.738281 7.480469 C 18.289062 6.046875 16.703125 5.375 15.179688 5.0625 L 15.179688 4 L 16.300781 4 C 16.738281 4 17.140625 3.800781 17.300781 3.480469 C 17.539062 3.121094 17.621094 2.679688 17.460938 2.28125 L 16.941406 0.839844 C 16.738281 0.320312 16.261719 0 15.738281 0 L 8.179688 0 C 7.660156 0 7.179688 0.320312 6.980469 0.800781 L 6.460938 2.238281 C 6.339844 2.640625 6.378906 3.078125 6.621094 3.441406 C 6.859375 3.800781 7.21875 4 7.660156 4 L 8.78125 4 L 8.78125 5.0625 C 7.242188 5.375 5.632812 6.058594 5.179688 7.519531 L 3.78125 13.519531 C 3.621094 14.160156 3.578125 14.800781 3.699219 15.441406 C 3.835938 16.28125 4.03125 17.011719 4.28125 17.628906 C 3.816406 17.6875 3.152344 17.855469 2.660156 18.320312 C 2.21875 18.761719 1.980469 19.320312 1.980469 20.039062 C 1.980469 20.078125 2.246094 23.785156 6.78125 23.992188 L 6.78125 24 L 17.179688 24 L 17.179688 23.992188 C 21.714844 23.785156 21.980469 20.078125 22.019531 19.960938 Z M 7.261719 3 C 7.179688 2.878906 7.179688 2.71875 7.21875 2.558594 L 7.738281 1.121094 C 7.78125 0.921875 7.980469 0.800781 8.179688 0.800781 L 15.78125 0.800781 C 15.980469 0.800781 16.140625 0.921875 16.21875 1.121094 L 16.738281 2.558594 C 16.820312 2.71875 16.78125 2.878906 16.699219 3 C 16.621094 3.121094 16.460938 3.199219 16.300781 3.199219 L 7.660156 3.199219 C 7.5 3.199219 7.339844 3.121094 7.261719 3 Z M 9.578125 4 L 14.378906 4 L 14.378906 4.929688 C 13.121094 4.757812 12.0625 4.800781 11.980469 4.800781 C 11.878906 4.800781 10.832031 4.757812 9.578125 4.925781 Z M 4.578125 13.71875 L 5.980469 7.71875 C 6.539062 5.960938 9.859375 5.601562 11.578125 5.601562 C 11.738281 5.601562 11.859375 5.601562 11.980469 5.601562 C 13.460938 5.519531 17.378906 5.761719 17.980469 7.679688 L 19.460938 13.71875 C 19.621094 14.238281 19.621094 14.800781 19.539062 15.320312 C 19.4375 15.929688 19.265625 16.710938 18.964844 17.410156 L 18.941406 17.398438 L 18.738281 17.761719 C 18.246094 18.675781 17.640625 19.152344 16.890625 19.195312 C 16.4375 19.035156 14.460938 18.417969 12.121094 18.402344 C 12.105469 18.402344 12.089844 18.402344 12.074219 18.402344 C 12.054688 18.398438 12.039062 18.398438 12.019531 18.398438 C 12.015625 18.398438 12.011719 18.398438 12.003906 18.398438 C 11.996094 18.398438 11.988281 18.398438 11.980469 18.398438 C 11.539062 18.398438 11.109375 18.421875 10.699219 18.460938 C 10.699219 18.460938 10.695312 18.460938 10.695312 18.460938 C 10.652344 18.464844 10.609375 18.46875 10.5625 18.472656 C 8.808594 18.644531 7.460938 19.070312 7.140625 19.199219 C 7.136719 19.199219 7.128906 19.199219 7.125 19.199219 C 5.375 19.105469 4.738281 16.753906 4.5 15.320312 C 4.421875 14.800781 4.460938 14.238281 4.578125 13.71875 Z M 2.78125 20 C 2.78125 19.519531 2.898438 19.160156 3.179688 18.878906 C 3.660156 18.441406 4.378906 18.398438 4.660156 18.398438 C 5.054688 19.070312 5.542969 19.539062 6.121094 19.789062 C 6.332031 19.886719 6.550781 19.957031 6.78125 20 L 6.78125 23.199219 C 3.019531 23 2.78125 20.121094 2.78125 20 Z M 7.578125 23.199219 L 7.578125 19.878906 C 8.21875 19.679688 9.972656 19.203125 11.964844 19.199219 C 11.992188 19.199219 12.019531 19.199219 12.050781 19.199219 C 12.054688 19.199219 12.058594 19.199219 12.0625 19.199219 C 14.046875 19.21875 15.765625 19.699219 16.378906 19.886719 L 16.378906 23.199219 Z M 17.179688 23.160156 L 17.179688 19.972656 C 18.050781 19.847656 18.761719 19.3125 19.300781 18.398438 C 19.582031 18.398438 20.300781 18.441406 20.78125 18.878906 C 21.058594 19.160156 21.179688 19.519531 21.179688 19.960938 C 21.179688 20.078125 20.980469 22.960938 17.179688 23.160156 Z M 17.179688 23.160156"/>
</svg>

<svg xmlns="http://www.w3.org/2000/svg" width="32" height="32" viewBox="0 0 24 24">
    <path d="M6.14 15.48c.2 1 1.079 1.72 2.079 1.72.16 0 .32-.04.441-.04 1.16-.238 2.281-.36 3.32-.36 1.04 0 2.16.122 3.282.36 1.16.238 2.277-.52 2.52-1.68.038-.12.038-.28.077-.402.04-.316.04-.68-.039-1l-1.16-5c-.2-.797-.8-1.398-1.558-1.598-.524-.16-1.48-.32-2.762-.32H11.859h-.28c-1.278 0-2.2.16-2.759.32-.8.2-1.36.84-1.558 1.598l-1.16 5a2.825 2.825 0 0 0-.043 1c.043.16.043.281.082.402zm.758-1.199l1.16-5c.122-.48.481-.883.962-1C9.5 8.161 10.379 8 11.578 8H12.38c1.2 0 2.043.16 2.601.281.48.117.84.52.961 1l1.16 5c.079.239.079.438.04.68-.04.117-.04.238-.082.36a1.36 1.36 0 0 1-1.48 1.058v-1.18c0-.238-.157-.398-.4-.398-.238 0-.398.16-.398.398v1.035c-.27-.043-.535-.078-.8-.113v-1.32c0-.242-.16-.403-.403-.403-.238 0-.398.16-.398.403v1.246a13.93 13.93 0 0 0-.801-.043v-1.606c0-.238-.16-.398-.399-.398-.242 0-.402.16-.402.398v1.606c-.262.008-.531.02-.797.043V14.8c0-.242-.16-.403-.402-.403-.238 0-.399.16-.399.403v1.324c-.265.031-.53.07-.8.113V15.2c0-.238-.16-.398-.399-.398-.242 0-.402.16-.402.398v1.184c-.691.066-1.29-.395-1.438-1.063a1.111 1.111 0 0 1-.082-.36c-.039-.198 0-.44.04-.679zm0 0"/>
    <path d="M22.02 19.96c0-.679-.239-1.28-.68-1.679-.496-.468-1.184-.636-1.645-.695.242-.606.43-1.324.567-2.145.078-.64.078-1.28-.082-1.921l-1.442-6.04c-.449-1.433-2.035-2.105-3.558-2.418V4h1.12c.438 0 .84-.2 1-.52.24-.359.321-.8.16-1.199L16.942.84c-.203-.52-.68-.84-1.203-.84H8.18c-.52 0-1 .32-1.2.8l-.52 1.438c-.12.403-.081.84.161 1.203.238.36.598.559 1.04.559h1.12v1.063c-1.539.312-3.148.996-3.601 2.457l-1.399 6c-.16.64-.203 1.28-.082 1.921.137.84.332 1.57.582 2.188-.465.058-1.129.226-1.62.691-.442.442-.68 1-.68 1.72 0 .038.265 3.745 4.8 3.952V24H17.18v-.008c4.535-.207 4.8-3.914 4.84-4.031zM7.262 3c-.082-.121-.082-.281-.043-.441l.52-1.438c.042-.2.241-.32.44-.32h7.602c.2 0 .36.12.438.32l.52 1.438c.081.16.042.32-.04.441a.483.483 0 0 1-.398.2H7.66a.483.483 0 0 1-.4-.2zm2.316 1h4.8v.93c-1.257-.172-2.316-.13-2.398-.13-.101 0-1.148-.042-2.402.126zm-5 9.719l1.402-6c.56-1.758 3.88-2.117 5.598-2.117h.402c1.48-.082 5.399.16 6 2.078l1.48 6.039c.161.52.161 1.082.08 1.601-.102.61-.274 1.39-.575 2.09l-.024-.012-.203.364c-.492.914-1.097 1.39-1.847 1.433-.453-.16-2.43-.777-4.77-.793h-.047c-.02-.004-.035-.004-.054-.004h-.04c-.44 0-.87.024-1.28.063h-.005l-.133.012c-1.753.172-3.101.597-3.421.726h-.016c-1.75-.094-2.387-2.445-2.625-3.879a4.43 4.43 0 0 1 .078-1.601zM2.781 20c0-.48.117-.84.399-1.121.48-.438 1.199-.48 1.48-.48.395.671.883 1.14 1.461 1.39.211.098.43.168.66.211v3.2c-3.761-.2-4-3.079-4-3.2zm4.797 3.2v-3.321c.64-.2 2.395-.676 4.387-.68H12.062c1.985.02 3.704.5 4.317.688v3.312zm9.602-.04v-3.187c.87-.125 1.582-.66 2.12-1.575.282 0 1 .043 1.481.48.278.282.399.642.399 1.083 0 .117-.2 3-4 3.2zm0 0"/>
</svg>
